X:14
T:Hestleyside Ride
M:2/2
L:1/8
K:A
P:A
A>B|"A"c2e>c "E7"B>AB>c|"A"A>Bc>de2f>g|"D"a>ga>f "A"e>cB>A|"Bm"f2B2 "E7"B2A>B|
"A"c2e>c "E7"B>AB>c|"F#m"A>Bc>d "C#m"e2f>g|"D"a>ga>f "E7"e>cA>B|"A"c2A2A2||
P:B
c>e|"D"f>ef>g a>ga>f|"A"e>cA>c e2c>e|"D"f>ef>g a>ga>f|"Bm"e>cA>c "E7"B2A>B|
"A"c2e>c "E7"B>AB>c|"F#m"A>Bc>d "C#m"e2f>g|"D"a>ga>f "E"e>cA>B|"A"c2A2A2|]

%%newpage

